static/img/xr/Tooltip_Object_Classic.svg

<svg fill="none" height="112" viewBox="0 0 71 112" width="71" xmlns="http://www.w3.org/2000/svg"><rect fill="#cbcdd6" height="24" rx="1.5" width="70" x=".5" y=".5"/><path d="m14.1953 13.1367c0 .4401-.056.8412-.168 1.2031-.1093.3594-.2747.6693-.4961.9297-.2213.2578-.4986.4571-.832.5977-.3333.1406-.7239.2109-1.1719.2109-.4557 0-.8515-.0703-1.1875-.2109-.3333-.1406-.61063-.3412-.83199-.6016-.21875-.2604-.38281-.5716-.49219-.9336-.10937-.3619-.16406-.763-.16406-1.2031 0-.5885.09636-1.1016.28906-1.5391.19532-.4401.49089-.7812.88668-1.0234.3985-.2448.9011-.3672 1.5079-.3672.5937 0 1.0872.1211 1.4804.3633.3933.2422.6875.5833.8828 1.0234.198.4375.2969.9545.2969 1.5508zm-4.35936 0c0 .4401.05989.8216.17966 1.1445.1198.3204.3034.5678.5508.7422.25.1719.5703.2578.9609.2578.3933 0 .7136-.0859.961-.2578.2474-.1744.4297-.4218.5469-.7422.1171-.3229.1757-.7044.1757-1.1445 0-.6693-.1341-1.1927-.4023-1.5703-.2656-.3802-.6901-.5703-1.2734-.5703-.3907 0-.7123.0859-.9649.2578-.25.1719-.4349.418-.5547.7383-.11977.3177-.17966.6992-.17966 1.1445zm6.41016-3.21482v1.46482c0 .1693-.0052.336-.0156.5-.0078.1615-.0157.2878-.0235.3789h.0391c.1172-.1875.2799-.345.4883-.4726.2109-.1302.4804-.1953.8086-.1953.513 0 .9258.1888 1.2382.5664.3126.375.4688.931.4688 1.6679 0 .4896-.0716.9011-.2148 1.2344-.1433.3333-.3451.5859-.6055.7578-.2578.1693-.5612.2539-.9102.2539-.3281 0-.5937-.0599-.7968-.1797-.2006-.1224-.3581-.2643-.4727-.4257h-.0664l-.168.5273h-.6875v-6.07812zm1.0547 2.42192c-.2604 0-.4675.052-.6211.1562-.1511.1042-.2604.2604-.3281.4688-.0677.2057-.1029.4674-.1055.7851v.082c0 .4818.0755.8503.2266 1.1055.1536.2552.4322.3828.8359.3828.3203 0 .5664-.1289.7383-.3867.1719-.2604.2578-.6328.2578-1.1172 0-.4896-.0859-.8581-.2578-1.1055-.1693-.2474-.418-.371-.7461-.371zm2.5781 5.5781c-.1354 0-.2643-.0104-.3867-.0313-.1224-.0182-.2253-.0403-.3086-.0664v-.7344c.0885.0261.1745.0456.2578.0586.0833.0131.1784.0196.2852.0196.1692 0 .3086-.0469.4179-.1407.112-.0937.168-.2721.168-.5351v-4.8164h.918v4.8984c0 .263-.0469.4961-.1407.6992-.0911.2032-.2369.362-.4375.4766-.1979.1146-.4557.1719-.7734.1719zm.3789-7.3985c0-.1849.0495-.3151.1484-.3906.1016-.0755.2253-.1133.3711-.1133.1407 0 .2618.0378.3633.1133.1042.0755.1563.2057.1563.3906 0 .1823-.0521.3125-.1563.3907-.1015.0755-.2226.1132-.3633.1132-.1458 0-.2695-.0377-.3711-.1132-.0989-.0782-.1484-.2084-.1484-.3907zm4.0117 1.0704c.3854 0 .7162.0794.9922.2382.2761.1589.4883.3841.6367.6758.1485.2917.2227.6406.2227 1.0469v.4922h-2.8867c.0104.4192.1224.7422.3359.9687.2162.2266.5182.3399.9063.3399.276 0 .5234-.0261.7422-.0782.2213-.0546.4492-.1341.6835-.2382v.7461c-.2161.1015-.4362.1757-.6601.2226-.224.0469-.4922.0703-.8047.0703-.4245 0-.7982-.082-1.1211-.2461-.3203-.1666-.5716-.414-.7539-.7422-.1797-.3281-.2695-.7356-.2695-1.2226 0-.4844.082-.8958.2461-1.2344.164-.3385.3945-.5963.6914-.7734.2968-.1771.6432-.2656 1.039-.2656zm0 .6914c-.289 0-.5234.0937-.7031.2812-.1771.1875-.2812.4622-.3125.8242h1.9688c-.0026-.2161-.0391-.4075-.1094-.5742-.0677-.1667-.1719-.2969-.3125-.3906-.138-.0938-.3151-.1406-.5313-.1406zm4.6289 3.7929c-.4088 0-.763-.0794-1.0625-.2383-.2994-.1588-.5299-.4023-.6914-.7304-.1614-.3282-.2422-.7448-.2422-1.25 0-.5261.0886-.9558.2657-1.2891s.4218-.5794.7343-.7383c.3151-.1588.6758-.2382 1.0821-.2382.2578 0 .4909.026.6992.0781.2109.0495.3893.1107.5352.1836l-.2735.7343c-.1588-.0651-.3216-.1197-.4883-.164-.1666-.0443-.3268-.0664-.4804-.0664-.2526 0-.4636.056-.6328.1679-.1667.112-.2917.2787-.375.5-.0808.2214-.1211.4961-.1211.8243 0 .3177.0416.5859.125.8046.0833.2162.207.3803.3711.4922.164.1094.3658.1641.6054.1641.237 0 .4492-.0286.6367-.0859s.3646-.1315.5313-.2227v.7969c-.1641.0937-.3399.1627-.5274.207-.1875.0469-.4179.0703-.6914.0703zm3.8438-.7422c.1198 0 .2383-.0104.3555-.0312.1171-.0235.2239-.0508.3203-.082v.6953c-.1016.0442-.2331.082-.3946.1132-.1614.0313-.3294.0469-.5039.0469-.2448 0-.4648-.0403-.6601-.1211-.1953-.0833-.3503-.2252-.4649-.4258-.1146-.2005-.1718-.4778-.1718-.832v-2.3242h-.5899v-.4102l.6328-.3242.3008-.9258h.5781v.961h1.2383v.6992h-1.2383v2.3125c0 .2187.0547.3815.1641.4883s.2539.1601.4336.1601zm5.707.6641h-.9414v-4.9141h-1.6719v-.7968h4.2813v.7968h-1.668zm6.2774-2.1719c0 .3594-.0469.6784-.1407.9571-.0937.2786-.2304.5143-.4101.707-.1797.1901-.3959.3359-.6485.4375-.2526.0989-.5377.1484-.8554.1484-.2969 0-.569-.0495-.8164-.1484-.2474-.1016-.4623-.2474-.6446-.4375-.1797-.1927-.319-.4284-.4179-.707-.099-.2787-.1485-.5977-.1485-.9571 0-.4765.0821-.8802.2461-1.2109.1667-.3333.4037-.5873.711-.7617.3073-.1745.6731-.2617 1.0976-.2617.3985 0 .75.0872 1.0547.2617.3047.1744.543.4284.7149.7617.1718.3333.2578.737.2578 1.2109zm-3.1368 0c0 .3151.0378.5847.1133.8086.0781.224.1979.3959.3594.5156.1615.1172.3698.1758.625.1758s.4635-.0586.625-.1758c.1615-.1197.2799-.2916.3555-.5156.0755-.2239.1132-.4935.1132-.8086s-.0377-.582-.1132-.8008c-.0756-.2213-.194-.3893-.3555-.5039-.1615-.1172-.3711-.1757-.6289-.1757-.3802 0-.6576.1276-.832.3828-.1745.2552-.2618.6211-.2618 1.0976zm8.0196 0c0 .3594-.0469.6784-.1406.9571-.0938.2786-.2305.5143-.4102.707-.1797.1901-.3958.3359-.6484.4375-.2526.0989-.5378.1484-.8555.1484-.2969 0-.569-.0495-.8164-.1484-.2474-.1016-.4623-.2474-.6445-.4375-.1797-.1927-.3191-.4284-.418-.707-.099-.2787-.1485-.5977-.1485-.9571 0-.4765.0821-.8802.2461-1.2109.1667-.3333.4037-.5873.711-.7617.3073-.1745.6732-.2617 1.0976-.2617.3985 0 .75.0872 1.0547.2617.3047.1744.543.4284.7149.7617.1718.3333.2578.737.2578 1.2109zm-3.1367 0c0 .3151.0377.5847.1132.8086.0782.224.198.3959.3594.5156.1615.1172.3698.1758.625.1758s.4636-.0586.625-.1758c.1615-.1197.28-.2916.3555-.5156.0755-.2239.1133-.4935.1133-.8086s-.0378-.582-.1133-.8008c-.0755-.2213-.194-.3893-.3555-.5039-.1614-.1172-.3711-.1757-.6289-.1757-.3802 0-.6575.1276-.832.3828s-.2617.6211-.2617 1.0976zm5.1132 2.1719h-.9218v-6.07812h.9218zm2.9219-.6641c.1198 0 .2383-.0104.3555-.0312.1172-.0235.2239-.0508.3203-.082v.6953c-.1016.0442-.2331.082-.3945.1132-.1615.0313-.3295.0469-.5039.0469-.2448 0-.4649-.0403-.6602-.1211-.1953-.0833-.3503-.2252-.4648-.4258-.1146-.2005-.1719-.4778-.1719-.832v-2.3242h-.5899v-.4102l.6328-.3242.3008-.9258h.5782v.961h1.2382v.6992h-1.2382v2.3125c0 .2187.0546.3815.164.4883s.2539.1601.4336.1601zm2.4727-3.6601v4.3242h-.918v-4.3242zm-.4532-1.6563c.1407 0 .2618.0378.3633.1133.1042.0755.1563.2057.1563.3906 0 .1823-.0521.3125-.1563.3907-.1015.0755-.2226.1132-.3633.1132-.1458 0-.2695-.0377-.3711-.1132-.0989-.0782-.1484-.2084-.1484-.3907 0-.1849.0495-.3151.1484-.3906.1016-.0755.2253-.1133.3711-.1133zm3.9883 1.5743c.513 0 .9245.1874 1.2344.5624.3125.375.4688.9323.4688 1.6719 0 .4896-.073.9024-.2188 1.2383-.1432.3333-.3451.5859-.6055.7578-.2578.1693-.5586.2539-.9023.2539-.2188 0-.4089-.0286-.5703-.0859-.1615-.0573-.2995-.1315-.4141-.2227-.1146-.0937-.2109-.1953-.289-.3047h-.0547c.013.1042.0247.2201.0351.3477.013.125.0196.2396.0196.3437v1.7618h-.9219v-6.2422h.75l.1289.5976h.043c.0807-.1224.1783-.2356.2929-.3398.1172-.1042.2578-.1862.4219-.2461.1667-.0625.3607-.0937.582-.0937zm-.2461.75c-.2526 0-.4557.0507-.6093.1523-.1511.099-.2618.2487-.3321.4492-.0677.2005-.1041.4518-.1093.7539v.1289c0 .3203.0325.5925.0976.8164.0677.2214.1784.3907.332.5078.1563.1146.3672.1719.6328.1719.224 0 .4089-.0612.5547-.1836.1485-.1224.2592-.2968.3321-.5234s.1093-.4935.1093-.8008c0-.4661-.0833-.8281-.25-1.0859-.164-.2578-.4166-.3867-.7578-.3867z" fill="#252a2e"/><rect height="24" rx="1.5" stroke="#89c6ed" width="70" x=".5" y=".5"/><g fill="#89c6ed"><path d="m34.5 102c0 .552.4477 1 1 1s1-.448 1-1zm0-75v75h2v-75z"/><circle cx="35.5" cy="108" r="4"/></g></svg>

<svg width="71" height="112" viewBox="0 0 71 112" fill="none" xmlns="http://www.w3.org/2000/svg">
<rect x="0.5" y="0.5" width="70" height="24" rx="1.5" fill="#CBCDD6"/>
<path d="M14.1953 13.1367C14.1953 13.5768 14.1393 13.9779 14.0273 14.3398C13.918 14.6992 13.7526 15.0091 13.5312 15.2695C13.3099 15.5273 13.0326 15.7266 12.6992 15.8672C12.3659 16.0078 11.9753 16.0781 11.5273 16.0781C11.0716 16.0781 10.6758 16.0078 10.3398 15.8672C10.0065 15.7266 9.72917 15.526 9.50781 15.2656C9.28906 15.0052 9.125 14.694 9.01562 14.332C8.90625 13.9701 8.85156 13.569 8.85156 13.1289C8.85156 12.5404 8.94792 12.0273 9.14062 11.5898C9.33594 11.1497 9.63151 10.8086 10.0273 10.5664C10.4258 10.3216 10.9284 10.1992 11.5352 10.1992C12.1289 10.1992 12.6224 10.3203 13.0156 10.5625C13.4089 10.8047 13.7031 11.1458 13.8984 11.5859C14.0964 12.0234 14.1953 12.5404 14.1953 13.1367ZM9.83594 13.1367C9.83594 13.5768 9.89583 13.9583 10.0156 14.2812C10.1354 14.6016 10.319 14.849 10.5664 15.0234C10.8164 15.1953 11.1367 15.2812 11.5273 15.2812C11.9206 15.2812 12.2409 15.1953 12.4883 15.0234C12.7357 14.849 12.918 14.6016 13.0352 14.2812C13.1523 13.9583 13.2109 13.5768 13.2109 13.1367C13.2109 12.4674 13.0768 11.944 12.8086 11.5664C12.543 11.1862 12.1185 10.9961 11.5352 10.9961C11.1445 10.9961 10.8229 11.082 10.5703 11.2539C10.3203 11.4258 10.1354 11.6719 10.0156 11.9922C9.89583 12.3099 9.83594 12.6914 9.83594 13.1367ZM16.2461 9.92188V11.3867C16.2461 11.556 16.2409 11.7227 16.2305 11.8867C16.2227 12.0482 16.2148 12.1745 16.207 12.2656H16.2461C16.3633 12.0781 16.526 11.9206 16.7344 11.793C16.9453 11.6628 17.2148 11.5977 17.543 11.5977C18.056 11.5977 18.4688 11.7865 18.7812 12.1641C19.0938 12.5391 19.25 13.0951 19.25 13.832C19.25 14.3216 19.1784 14.7331 19.0352 15.0664C18.8919 15.3997 18.6901 15.6523 18.4297 15.8242C18.1719 15.9935 17.8685 16.0781 17.5195 16.0781C17.1914 16.0781 16.9258 16.0182 16.7227 15.8984C16.5221 15.776 16.3646 15.6341 16.25 15.4727H16.1836L16.0156 16H15.3281V9.92188H16.2461ZM17.3008 12.3438C17.0404 12.3438 16.8333 12.3958 16.6797 12.5C16.5286 12.6042 16.4193 12.7604 16.3516 12.9688C16.2839 13.1745 16.2487 13.4362 16.2461 13.7539V13.8359C16.2461 14.3177 16.3216 14.6862 16.4727 14.9414C16.6263 15.1966 16.9049 15.3242 17.3086 15.3242C17.6289 15.3242 17.875 15.1953 18.0469 14.9375C18.2188 14.6771 18.3047 14.3047 18.3047 13.8203C18.3047 13.3307 18.2188 12.9622 18.0469 12.7148C17.8776 12.4674 17.6289 12.3438 17.3008 12.3438ZM19.8789 17.9219C19.7435 17.9219 19.6146 17.9115 19.4922 17.8906C19.3698 17.8724 19.2669 17.8503 19.1836 17.8242V17.0898C19.2721 17.1159 19.3581 17.1354 19.4414 17.1484C19.5247 17.1615 19.6198 17.168 19.7266 17.168C19.8958 17.168 20.0352 17.1211 20.1445 17.0273C20.2565 16.9336 20.3125 16.7552 20.3125 16.4922V11.6758H21.2305V16.5742C21.2305 16.8372 21.1836 17.0703 21.0898 17.2734C20.9987 17.4766 20.8529 17.6354 20.6523 17.75C20.4544 17.8646 20.1966 17.9219 19.8789 17.9219ZM20.2578 10.5234C20.2578 10.3385 20.3073 10.2083 20.4062 10.1328C20.5078 10.0573 20.6315 10.0195 20.7773 10.0195C20.918 10.0195 21.0391 10.0573 21.1406 10.1328C21.2448 10.2083 21.2969 10.3385 21.2969 10.5234C21.2969 10.7057 21.2448 10.8359 21.1406 10.9141C21.0391 10.9896 20.918 11.0273 20.7773 11.0273C20.6315 11.0273 20.5078 10.9896 20.4062 10.9141C20.3073 10.8359 20.2578 10.7057 20.2578 10.5234ZM24.2695 11.5938C24.6549 11.5938 24.9857 11.6732 25.2617 11.832C25.5378 11.9909 25.75 12.2161 25.8984 12.5078C26.0469 12.7995 26.1211 13.1484 26.1211 13.5547V14.0469H23.2344C23.2448 14.4661 23.3568 14.7891 23.5703 15.0156C23.7865 15.2422 24.0885 15.3555 24.4766 15.3555C24.7526 15.3555 25 15.3294 25.2188 15.2773C25.4401 15.2227 25.668 15.1432 25.9023 15.0391V15.7852C25.6862 15.8867 25.4661 15.9609 25.2422 16.0078C25.0182 16.0547 24.75 16.0781 24.4375 16.0781C24.013 16.0781 23.6393 15.9961 23.3164 15.832C22.9961 15.6654 22.7448 15.418 22.5625 15.0898C22.3828 14.7617 22.293 14.3542 22.293 13.8672C22.293 13.3828 22.375 12.9714 22.5391 12.6328C22.7031 12.2943 22.9336 12.0365 23.2305 11.8594C23.5273 11.6823 23.8737 11.5938 24.2695 11.5938ZM24.2695 12.2852C23.9805 12.2852 23.7461 12.3789 23.5664 12.5664C23.3893 12.7539 23.2852 13.0286 23.2539 13.3906H25.2227C25.2201 13.1745 25.1836 12.9831 25.1133 12.8164C25.0456 12.6497 24.9414 12.5195 24.8008 12.4258C24.6628 12.332 24.4857 12.2852 24.2695 12.2852ZM28.8984 16.0781C28.4896 16.0781 28.1354 15.9987 27.8359 15.8398C27.5365 15.681 27.306 15.4375 27.1445 15.1094C26.9831 14.7812 26.9023 14.3646 26.9023 13.8594C26.9023 13.3333 26.9909 12.9036 27.168 12.5703C27.3451 12.237 27.5898 11.9909 27.9023 11.832C28.2174 11.6732 28.5781 11.5938 28.9844 11.5938C29.2422 11.5938 29.4753 11.6198 29.6836 11.6719C29.8945 11.7214 30.0729 11.7826 30.2188 11.8555L29.9453 12.5898C29.7865 12.5247 29.6237 12.4701 29.457 12.4258C29.2904 12.3815 29.1302 12.3594 28.9766 12.3594C28.724 12.3594 28.513 12.4154 28.3438 12.5273C28.1771 12.6393 28.0521 12.806 27.9688 13.0273C27.888 13.2487 27.8477 13.5234 27.8477 13.8516C27.8477 14.1693 27.8893 14.4375 27.9727 14.6562C28.056 14.8724 28.1797 15.0365 28.3438 15.1484C28.5078 15.2578 28.7096 15.3125 28.9492 15.3125C29.1862 15.3125 29.3984 15.2839 29.5859 15.2266C29.7734 15.1693 29.9505 15.0951 30.1172 15.0039V15.8008C29.9531 15.8945 29.7773 15.9635 29.5898 16.0078C29.4023 16.0547 29.1719 16.0781 28.8984 16.0781ZM32.7422 15.3359C32.862 15.3359 32.9805 15.3255 33.0977 15.3047C33.2148 15.2812 33.3216 15.2539 33.418 15.2227V15.918C33.3164 15.9622 33.1849 16 33.0234 16.0312C32.862 16.0625 32.694 16.0781 32.5195 16.0781C32.2747 16.0781 32.0547 16.0378 31.8594 15.957C31.6641 15.8737 31.5091 15.7318 31.3945 15.5312C31.2799 15.3307 31.2227 15.0534 31.2227 14.6992V12.375H30.6328V11.9648L31.2656 11.6406L31.5664 10.7148H32.1445V11.6758H33.3828V12.375H32.1445V14.6875C32.1445 14.9062 32.1992 15.069 32.3086 15.1758C32.418 15.2826 32.5625 15.3359 32.7422 15.3359ZM38.4492 16H37.5078V11.0859H35.8359V10.2891H40.1172V11.0859H38.4492V16ZM44.7266 13.8281C44.7266 14.1875 44.6797 14.5065 44.5859 14.7852C44.4922 15.0638 44.3555 15.2995 44.1758 15.4922C43.9961 15.6823 43.7799 15.8281 43.5273 15.9297C43.2747 16.0286 42.9896 16.0781 42.6719 16.0781C42.375 16.0781 42.1029 16.0286 41.8555 15.9297C41.6081 15.8281 41.3932 15.6823 41.2109 15.4922C41.0312 15.2995 40.8919 15.0638 40.793 14.7852C40.694 14.5065 40.6445 14.1875 40.6445 13.8281C40.6445 13.3516 40.7266 12.9479 40.8906 12.6172C41.0573 12.2839 41.2943 12.0299 41.6016 11.8555C41.9089 11.681 42.2747 11.5938 42.6992 11.5938C43.0977 11.5938 43.4492 11.681 43.7539 11.8555C44.0586 12.0299 44.2969 12.2839 44.4688 12.6172C44.6406 12.9505 44.7266 13.3542 44.7266 13.8281ZM41.5898 13.8281C41.5898 14.1432 41.6276 14.4128 41.7031 14.6367C41.7812 14.8607 41.901 15.0326 42.0625 15.1523C42.224 15.2695 42.4323 15.3281 42.6875 15.3281C42.9427 15.3281 43.151 15.2695 43.3125 15.1523C43.474 15.0326 43.5924 14.8607 43.668 14.6367C43.7435 14.4128 43.7812 14.1432 43.7812 13.8281C43.7812 13.513 43.7435 13.2461 43.668 13.0273C43.5924 12.806 43.474 12.638 43.3125 12.5234C43.151 12.4062 42.9414 12.3477 42.6836 12.3477C42.3034 12.3477 42.026 12.4753 41.8516 12.7305C41.6771 12.9857 41.5898 13.3516 41.5898 13.8281ZM49.6094 13.8281C49.6094 14.1875 49.5625 14.5065 49.4688 14.7852C49.375 15.0638 49.2383 15.2995 49.0586 15.4922C48.8789 15.6823 48.6628 15.8281 48.4102 15.9297C48.1576 16.0286 47.8724 16.0781 47.5547 16.0781C47.2578 16.0781 46.9857 16.0286 46.7383 15.9297C46.4909 15.8281 46.276 15.6823 46.0938 15.4922C45.9141 15.2995 45.7747 15.0638 45.6758 14.7852C45.5768 14.5065 45.5273 14.1875 45.5273 13.8281C45.5273 13.3516 45.6094 12.9479 45.7734 12.6172C45.9401 12.2839 46.1771 12.0299 46.4844 11.8555C46.7917 11.681 47.1576 11.5938 47.582 11.5938C47.9805 11.5938 48.332 11.681 48.6367 11.8555C48.9414 12.0299 49.1797 12.2839 49.3516 12.6172C49.5234 12.9505 49.6094 13.3542 49.6094 13.8281ZM46.4727 13.8281C46.4727 14.1432 46.5104 14.4128 46.5859 14.6367C46.6641 14.8607 46.7839 15.0326 46.9453 15.1523C47.1068 15.2695 47.3151 15.3281 47.5703 15.3281C47.8255 15.3281 48.0339 15.2695 48.1953 15.1523C48.3568 15.0326 48.4753 14.8607 48.5508 14.6367C48.6263 14.4128 48.6641 14.1432 48.6641 13.8281C48.6641 13.513 48.6263 13.2461 48.5508 13.0273C48.4753 12.806 48.3568 12.638 48.1953 12.5234C48.0339 12.4062 47.8242 12.3477 47.5664 12.3477C47.1862 12.3477 46.9089 12.4753 46.7344 12.7305C46.5599 12.9857 46.4727 13.3516 46.4727 13.8281ZM51.5859 16H50.6641V9.92188H51.5859V16ZM54.5078 15.3359C54.6276 15.3359 54.7461 15.3255 54.8633 15.3047C54.9805 15.2812 55.0872 15.2539 55.1836 15.2227V15.918C55.082 15.9622 54.9505 16 54.7891 16.0312C54.6276 16.0625 54.4596 16.0781 54.2852 16.0781C54.0404 16.0781 53.8203 16.0378 53.625 15.957C53.4297 15.8737 53.2747 15.7318 53.1602 15.5312C53.0456 15.3307 52.9883 15.0534 52.9883 14.6992V12.375H52.3984V11.9648L53.0312 11.6406L53.332 10.7148H53.9102V11.6758H55.1484V12.375H53.9102V14.6875C53.9102 14.9062 53.9648 15.069 54.0742 15.1758C54.1836 15.2826 54.3281 15.3359 54.5078 15.3359ZM56.9805 11.6758V16H56.0625V11.6758H56.9805ZM56.5273 10.0195C56.668 10.0195 56.7891 10.0573 56.8906 10.1328C56.9948 10.2083 57.0469 10.3385 57.0469 10.5234C57.0469 10.7057 56.9948 10.8359 56.8906 10.9141C56.7891 10.9896 56.668 11.0273 56.5273 11.0273C56.3815 11.0273 56.2578 10.9896 56.1562 10.9141C56.0573 10.8359 56.0078 10.7057 56.0078 10.5234C56.0078 10.3385 56.0573 10.2083 56.1562 10.1328C56.2578 10.0573 56.3815 10.0195 56.5273 10.0195ZM60.5156 11.5938C61.0286 11.5938 61.4401 11.7812 61.75 12.1562C62.0625 12.5312 62.2188 13.0885 62.2188 13.8281C62.2188 14.3177 62.1458 14.7305 62 15.0664C61.8568 15.3997 61.6549 15.6523 61.3945 15.8242C61.1367 15.9935 60.8359 16.0781 60.4922 16.0781C60.2734 16.0781 60.0833 16.0495 59.9219 15.9922C59.7604 15.9349 59.6224 15.8607 59.5078 15.7695C59.3932 15.6758 59.2969 15.5742 59.2188 15.4648H59.1641C59.1771 15.569 59.1888 15.6849 59.1992 15.8125C59.2122 15.9375 59.2188 16.0521 59.2188 16.1562V17.918H58.2969V11.6758H59.0469L59.1758 12.2734H59.2188C59.2995 12.151 59.3971 12.0378 59.5117 11.9336C59.6289 11.8294 59.7695 11.7474 59.9336 11.6875C60.1003 11.625 60.2943 11.5938 60.5156 11.5938ZM60.2695 12.3438C60.0169 12.3438 59.8138 12.3945 59.6602 12.4961C59.5091 12.5951 59.3984 12.7448 59.3281 12.9453C59.2604 13.1458 59.224 13.3971 59.2188 13.6992V13.8281C59.2188 14.1484 59.2513 14.4206 59.3164 14.6445C59.3841 14.8659 59.4948 15.0352 59.6484 15.1523C59.8047 15.2669 60.0156 15.3242 60.2812 15.3242C60.5052 15.3242 60.6901 15.263 60.8359 15.1406C60.9844 15.0182 61.0951 14.8438 61.168 14.6172C61.2409 14.3906 61.2773 14.1237 61.2773 13.8164C61.2773 13.3503 61.194 12.9883 61.0273 12.7305C60.8633 12.4727 60.6107 12.3438 60.2695 12.3438Z" fill="#252A2E"/>
<rect x="0.5" y="0.5" width="70" height="24" rx="1.5" stroke="#89C6ED"/>
<path d="M34.5 102C34.5 102.552 34.9477 103 35.5 103C36.0523 103 36.5 102.552 36.5 102H34.5ZM34.5 27L34.5 102H36.5L36.5 27H34.5Z" fill="#89C6ED"/>
<circle cx="35.5" cy="108" r="4" fill="#89C6ED"/>
</svg>
